X: 28
T: joyBrussels
M: 6/4
L: 1/8
K:C clef=treble-8 octave=1 
V:1
D,12| 
F,12| 
A,12| 
G,12|
C12| 
B,12| 
A,12| 
G,12|
G,12| 
G,12| 
C12| 
A,12|
D,12| 
E,12| 
D,12| 
D,12|
G,12| 
F,12| 
E,12| 
E,12|
A,12| 
D12| 
G,12| 
D,12|
F,12| 
E,12| 
D,12| 
D,12|
F,12| 
A,12| 
D,12| 
E,12|
D,12| 
D,6 x6| 
D,12|

